react_webviews/src/assets/new_fund.svg

<svg width="32" height="33" viewBox="0 0 32 33" fill="none" xmlns="http://www.w3.org/2000/svg">
<path d="M27.3234 27.8801C27.031 27.4893 26.4309 27.2206 25.736 27.2206C25.5721 27.2206 25.4142 27.2368 25.2634 27.2647C23.9823 26.3481 22.1646 25.7749 20.1467 25.7749C19.4459 25.7749 18.7698 25.8449 18.1311 25.9734C17.2579 25.5202 16.164 25.25 14.9759 25.25C13.623 25.25 12.392 25.5998 11.4704 26.1719C9.43604 26.2113 7.63759 26.8841 6.49854 27.9088C6.30379 27.8886 6.10565 27.875 5.9025 27.875C3.74721 27.875 2 29.0503 2 30.5001H29.7885C29.9244 30.2773 30.0005 30.0338 30.0005 29.7782C30.0005 28.7617 28.8147 27.9337 27.3234 27.8801Z" fill="#FE794D"/>
<path d="M25.8508 2.50002C25.8508 2.50002 23.1367 5.25422 17.8554 7.27064C12.3744 9.4407 12.4926 14.5641 14.8294 18.731C15.2766 15.8152 18.1013 12.2634 20.8358 10.5742C20.8943 10.5437 20.9665 10.5663 20.997 10.6249C21.0251 10.6784 21.0031 10.7469 20.955 10.7809C20.955 10.7809 20.3908 11.138 19.6873 11.8354C18.9785 12.5246 18.1614 13.5696 17.4795 14.6929C16.79 15.8131 16.2306 17.0033 15.87 17.9112C15.6828 18.3715 15.5609 18.7234 15.4634 19.0106C15.4387 19.0846 15.4249 19.1259 15.4061 19.1823C15.4066 19.1826 15.407 19.1828 15.4076 19.1832C14.6612 21.4089 14.237 23.1124 14.0199 24.6878C13.7639 23.6464 13.3574 22.9002 12.7942 21.9395C12.7848 21.9222 12.775 21.9042 12.7618 21.8796C12.6762 21.7227 12.5698 21.5308 12.4146 21.2825C12.1135 20.7921 11.6684 20.1578 11.1549 19.5773C10.6455 18.9943 10.0656 18.4704 9.58452 18.142C9.10561 17.8083 8.74208 17.658 8.74208 17.658C8.71061 17.6431 8.69097 17.6057 8.70187 17.5717C8.7137 17.5346 8.75329 17.5142 8.79031 17.526C10.5483 18.2302 12.5469 20.0061 13.1014 21.6532C13.2619 21.3343 13.4207 20.6312 13.4752 20.3347C13.9018 18.0142 12.5031 15.759 10.1859 15.3075C6.91673 14.6709 5.06299 13.3465 5.06299 13.3465C5.06299 13.3465 5.39515 18.7149 7.24796 21.1793C8.61014 22.9911 10.8765 23.1996 12.4075 22.2617C13.2019 23.6165 13.7173 24.5569 13.83 27.2008C13.8217 27.6781 13.8272 28.164 13.8427 28.6694C14.012 28.6845 14.179 28.7109 14.3422 28.7505C14.3382 28.6284 14.3347 28.5073 14.3319 28.3875H14.3503C14.3503 27.9489 14.3427 27.5489 14.3277 27.1802C14.3717 24.8548 14.7467 22.7292 15.8545 19.4119C18.7203 20.7408 22.6647 19.7888 24.4799 16.2346C26.8601 11.5742 25.8508 2.50002 25.8508 2.50002Z" fill="#FE794D"/>
</svg>

<svg xmlns="http://www.w3.org/2000/svg" width="32" height="33" fill="#fe794d" xmlns:v="https://vecta.io/nano"><path d="M27.323 27.88c-.292-.391-.892-.659-1.587-.659-.164 0-.322.016-.473.044-1.281-.917-3.099-1.49-5.117-1.49a10.23 10.23 0 0 0-2.016.199c-.873-.453-1.967-.723-3.155-.723-1.353 0-2.584.35-3.505.922-2.034.039-3.833.712-4.972 1.737l-.596-.034C3.747 27.875 2 29.05 2 30.5h27.789c.136-.223.212-.466.212-.722 0-1.016-1.186-1.844-2.677-1.898z"/><path d="M25.851 2.5s-2.714 2.754-7.995 4.771c-5.481 2.17-5.363 7.293-3.026 11.46.447-2.916 3.272-6.468 6.006-8.157a.12.12 0 0 1 .161.051c.028.053.006.122-.042.156 0 0-.564.357-1.268 1.054-.709.689-1.526 1.734-2.208 2.858-.69 1.12-1.249 2.31-1.61 3.218a18.73 18.73 0 0 0-.407 1.099l-.057.172c-.745 2.227-1.169 3.93-1.386 5.505-.256-1.041-.662-1.788-1.226-2.748l-.032-.06a11.01 11.01 0 0 0-.347-.597 12.73 12.73 0 0 0-1.26-1.705c-.509-.583-1.089-1.107-1.57-1.435-.479-.334-.842-.484-.842-.484-.031-.015-.051-.052-.04-.086s.051-.058.088-.046c1.758.704 3.757 2.48 4.311 4.127.161-.319.319-1.022.374-1.318.427-2.321-.972-4.576-3.289-5.027-3.269-.637-5.123-1.961-5.123-1.961s.332 5.368 2.185 7.833c1.362 1.812 3.629 2.02 5.16 1.082.794 1.355 1.31 2.295 1.422 4.939a30.52 30.52 0 0 0 .013 1.469c.169.015.336.041.499.081l-.01-.363h.018c0-.439-.008-.839-.023-1.207.044-2.325.419-4.451 1.527-7.768 2.866 1.329 6.81.377 8.625-3.177C26.86 11.574 25.851 2.5 25.851 2.5z"/></svg>
